public/assets/images/homeOutline-inverse.svg

<svg width="24" height="24" fill="none" xmlns="http://www.w3.org/2000/svg"><path d="M12 6.19l5 4.5v7.81h-2v-6H9v6H7v-7.81l5-4.5zm0-2.69l-10 9h3v8h6v-6h2v6h6v-8h3l-10-9z" fill="var(--ion-color-inverse-primary)"/></svg>

<svg width="24" height="24" viewBox="0 0 24 24" fill="none" xmlns="http://www.w3.org/2000/svg">
<path d="M12 6.19L17 10.69V18.5H15V12.5H9V18.5H7V10.69L12 6.19ZM12 3.5L2 12.5H5V20.5H11V14.5H13V20.5H19V12.5H22L12 3.5Z" fill="var(--ion-color-inverse-primary)"/>
</svg>
